X: 1359
T: Merâmı Andelîbin Vasl-ı Güldür
C: Kemânî Rıza Efendi
O: Turkey
F: http://compmusic.upf.edu/node/140
N: sehnaz--sarki--agirevfer--merami_andelibin--kemani_riza_efendi
N: makam= sehnaz
N: form= sarki
N: usul= agirevfer = 9/4
M: 9/4
L: 1/16
K: C _7/8B ^1/4f ^c ^g
Q: 1/4=72
%%MIDI tuningsystem comma53
g4 a8 =b4 =c'3b a2b2 g4 a8  | a2{=b}g2 a2{b}g2 g2=f2 g2f2 f2e2 f2e2 e4 ^d8  | 
w:  Me ra *  mı  *  *  *  an  |  de *  *  *  *  *  lî *  *  *  bin  *  *  *  vasl_  | 
z2^d4g2 =f3g f2a2 g2gf e4 f4 =c'3=b a2b2  | \
w:  ı  *  *  *  *  *  *  *  *  *  *  gül  | 
g4 a4 a2=b2 a2g2 g2^fg f2g2 a8 z4  | 
w:  dür  *  *  *  *  *  câ *  *  *  *  nım    | 
g4 a8 g4 a2=b4a2 (3d'2=c'2b2 (3a2g2=f2 e4  | \
w:  Gö nül *  dür  *  *  bu   | 
=f4 g8 f2g2 a2=b2 a2g2 f3e d2c2 d4  | 
w:  gö nül *  *  dür  *  *  *  bu   | 
e3d c2d2 e2^2/4f2 =g2=f2 e2d2 c2B2 A4 e8  | \
w:  gö *  *  *  *  *  *  *  *  *  *  *  nül  | 
d3c B2d2 c3B A2c2 B3A G2AG A4 de=fg a4  | 
w:  dür   *  *  *  *  *  *  *  *  *  *  *  *  *  SAZ  | 
g4 a8 g4 a2=b4a2 (3d'2=c'2b2 (3a2g2=f2 e4  | \
w:  Gö nül *  dür  *  *  bu   | 
=f4 g8 f2g2 a2=b2 a2g2 f3e d2c2 d4  | 
w:  gö nül *  *  dür  *  *  *  bu   | 
e3d c2d2 e2^2/4f2 =g2=f2 e2d2 c2B2 A4 e8  | \
w:  gö *  *  *  *  *  *  *  *  *  *  *  nül  | 
d3c B2d2 c3B A2c2 B3A G2AG A2BA cde=f edcB  | 
w:  dür   *  *  *  *  *  *  *  *  *  *  *  *  SAZ  | 
A2A4c4B4d2 c2d2 e2d2 c4 d8  | z2d4=f4e4f2 {=b}a3g ^1/4f2a2 g4 a8  | 
w:  *  No *  lur  *  sen  *  *  *  de   |  be *  ni  *  *  bir  *  *  *  ker  | 
g2a2 =b2=c'2 d'2c'2 b2a2 b2a2 g2f2 e4 c'3b a2b2  | \
w:  re  *  *  *  *  *  *  *  *  *  *  *  *  gül  | 
g4 a4 a2=b2 a2g2 g2^fg f2g2 a8 z4  | 
w:  dür  *  *  *  *  *  câ *  *  *  *  nım    | 
g4 a8 g4 a2=b4a2 (3d'2=c'2b2 (3a2g2=f2 e4  | \
w:  Gö nül *  dür  *  *  bu   | 
=f4 g8 f2g2 a2=b2 a2g2 f3e d2c2 d4  | 
w:  gö nül *  *  dür  *  *  *  bu   | 
e3d c2d2 e2^2/4f2 =g2=f2 e2d2 c2B2 A4 e8  | \
w:  gö *  *  *  *  *  *  *  *  *  *  *  nül  | 
d3c B2d2 c3B A2c2 B3A G2AG A4 de=fg a4  | 
w:  dür   *  *  *  *  *  *  *  *  *  *  *  *  *  SAZ  | 
g4 a8 g4 a2=b4a2 (3d'2=c'2b2 (3a2g2=f2 e4  | \
w:  Gö nül *  dür  *  *  bu   | 
=f4 g8 f2g2 a2=b2 a2g2 f3e d2c2 d4  | 
w:  gö nül *  *  dür  *  *  *  bu   | 
e3d c2d2 e2^2/4f2 =g2=f2 e2d2 c2B2 A4 e8  | \
w:  gö *  *  *  *  *  *  *  *  *  *  *  nül  | 
d3c B2d2 c3B A2c2 B3A G2AG A8 z4  | 
w:  dür   KARAR  | 
|


